X:1
T:Title
%%score ( 1 2 ) ( 3 4 )
L:1/8
Q:1/4=100
M:4/4
K:D
V:1 treble nm="Midi_20"
V:2 treble 
V:3 bass nm="Midi_20"
V:4 bass 
V:1
"^Northumberland (D.C.M.)""^Henry Smart\n(1813-1879)""^Thomas Hughes\n(1822-96)""^O God of truth, whose living word" A2 | %1
w: O|
w: Fain|
w: O|
 A2 B2 A2 FG | A2 d2 c2 B2 | A2 D2 G2 E2 | F6 || F2 | A2 F2 E2 c2 | B2 A2 ^G2 B2 | c2 d2 B2 B2 | %9
w: God of truth, whose *|liv- ing word *|* what- e'er hath|breath,|||||
w: would we join that *|blest ar- ray, *|fol- low in the|might|||||
w: God of truth, for *|whom we long, *|Thou that hear- est|prayer,|||||
 A6 || A2 | c2 d2 e2 Bc | d2 c2 B2 B2 | F2 G2 A2 GF | E6 || A2 | A2 B2 A2 FG | A2 d2 c2 B2 | %18
w: |Set|* Thy stan- dard, *|Lord, that we, Who|claim a heaven- ly *|birth,||||
w: |Yet|* can fight for *|truth and God, En-|thralled by lies and *|sin?||||
w: |So,|* in Thy re\- *|* * fire, From|eve- ry lie set *|free,||||
 A2 D2 G2 E2 | D6 |] %20
w: ||
w: ||
w: ||
V:2
 D2 | D2 D2 D2 D2 | D2 F2 E2 E2 | A,2 B,2 D2 C2 | D6 || D2 | D2 D2 E2 E2 | F2 D2 E2 E2 | %8
w: |||||Look|down on Thy cre-|a- tion, Lord, En-|
w: |||||Of|Him, the Faith- ful|and the True, In|
w: |||||Do|Thine own bat- tle|in our hearts, And|
 E2 F2 B,2 ED | C6 || E2 | A2 A2 G2 E2 | F2 FE D2 D2 | D2 D2 D2 ED | C6 || E2 | D2 DE F2 D2 | %17
w: slaved by sin and *|death.|||* that * * *|||||
w: rai- ment clean and *|white.|||* and * * *|||||
w: slay the false- hood *|there.|||fin- ing * * *|||||
 D2 E2 E2 E2 | A,2 B,2 D2 C2 | D6 |] %20
w: |||
w: |||
w: |||
V:3
 F,2 | F,2 G,2 F,2 A,2 | A,2 A,2 A,2 B,C | D2 F,2 B,2 A,2 | A,6 || A,2 | A,2 A,2 A,2 A,2 | %7
w: ||* * * Up\- *|holds * * *||||
w: ||* * * And *|||||
w: ||* * * O *|||||
 F,2 A,2 B,2 ^G,2 | A,2 A,2 A,2 ^G,2 | A,6 || C2 | E2 A,2 B,2 B,2 | B,2 ^A,2 B,2 F,2 | %13
w: ||||||
w: ||||||
w: ||||||
 B,2 B,2 A,2 B,2 | E,6 || C2 | D2 B,C D2 A,G, | F,2 ^G,2 A,2 B,C | D2 F,2 B,2 A,G, | F,6 |] %20
w: |||march with * Thee to *|* the lies That *|vex Thy groan- ing *|earth.|
w: |||who would * wage such *|* on earth Must *|first be true with\- *|in.|
w: |||us Thy * per- fect *|* shall dwell, And *|we may fight for *|Thee.|
V:4
 D,2 | D,2 G,,2 D,2 D,E, | F,2 D,2 A,,2 G,2 | F,2 B,,2 G,,2 A,,2 | D,6 || D,2 | F,2 D,2 C,2 A,,2 | %7
w: |||||||
w: |||||||
w: |||||||
 D,2 F,2 E,2 E,2 | A,2 D,2 E,2 E,2 | A,,6 || A,2 | A,G, F,2 E,2 G,2 | F,2 F,2 B,,2 B,,C, | %13
w: ||||up * * * *||
w: ||||who * * * *||
w: ||||tried * * * *||
 D,2 B,,2 F,,2 G,,2 | A,,6 || A,G, | F,2 G,2 D,2 F,E, | D,C, B,,2 A,,2 G,,2 | F,,2 B,,2 G,,2 A,,2 | %19
w: ||May *||smite * * * *||
w: ||He *||war * * * *||
w: ||In *||truth * * * *||
 D,6 |] %20
w: |
w: |
w: |

